X:63
T:Sleepy Moggy. JBi.62
T:Jennyâ€™s Chickens,aka. JBi.62
M:C|
L:1/8
Q:1/2=100
S:James Biggins MS, Leeds, 1779.
R:.Reel
O:England
A:Yorkshire
N:Jennyâ€™s Chickens in Ireland.
Z:vmp.Nick Barber & Chris Partington
K:D major
f2Bd fBde|f2Ba eAce|f2Ba fBde|fgaf eAce:|!
|:fBdB fBde|fBdB eAce|fBdB fBde|fgaf eAce:|

